X:1
T: The House of Letterfourie
C:William Marshall
R:Reel
Q: 232
K:D
M:4/4
L:1/8
|:B|AD FD EB, B,B|AD FD d2 df|gf ed eB Bd|FD F1/2G1/2A d2 dB|
AD FD EB, B,B|AD FD d2 df|gf ed eB Bd|FD F1/2G1/2A d2 df|
dg fg1/2a1/2 be ef|dg fg1/2a1/2 fd ec|dB AF EF GB|FD F1/2G1/2A d2 df|
dg fg1/2a1/2 be ef|dg fg1/2a1/2 fd ec|dB AF EF GB|FD F1/2G1/2A d2 d:|
